X:599
T: Christlied der Hirten (297), S. 615
N: T0486a
O: Luxemburg
S: Singendes Volk, Esch-Alzette 1937 posth.]
N: Beidweiler, hhh Johann Didier, 4.1.1934
R: geistliches Lied]
M: 4/4
L: 1/8
K: G
 | G2F2GE3D | E2F2G4
G2FGE3D | E2F2G4 | z2
G2G3G | EFG2F3E | E2D2
G2A2B4 | G2A2B4
B2AG | AGF2G2F2 | E2c2
B2AG | AGF2G2F2 | E8

